contributed-vectors/instacart_shopper_alt.svg

<?xml version="1.0" encoding="UTF-8" standalone="no"?>
<svg
   xmlns:dc="http://purl.org/dc/elements/1.1/"
   xmlns:cc="http://creativecommons.org/ns#"
   xmlns:rdf="http://www.w3.org/1999/02/22-rdf-syntax-ns#"
   xmlns:svg="http://www.w3.org/2000/svg"
   xmlns="http://www.w3.org/2000/svg"
   xmlns:sodipodi="http://sodipodi.sourceforge.net/DTD/sodipodi-0.dtd"
   xmlns:inkscape="http://www.inkscape.org/namespaces/inkscape"
   sodipodi:docname="instacart_shoppers.svg"
   inkscape:version="1.0.1 (3bc2e813f5, 2020-09-07)"
   version="1.1"
   id="svg2"
   viewBox="0 0 192 192"
   height="192"
   width="192"
   inkscape:export-filename="/home/jphilippe/inkscape/icônes/delta-github/png/instacart_shoppers.png"
   inkscape:export-xdpi="96"
   inkscape:export-ydpi="96">
  <sodipodi:namedview
     inkscape:document-rotation="0"
     inkscape:window-maximized="1"
     inkscape:window-y="0"
     inkscape:window-x="1920"
     inkscape:window-height="1022"
     inkscape:window-width="1680"
     units="px"
     showgrid="false"
     inkscape:current-layer="layer1"
     inkscape:document-units="px"
     inkscape:cy="-40.844307"
     inkscape:cx="-57.870766"
     inkscape:zoom="0.70710678"
     inkscape:pageshadow="2"
     inkscape:pageopacity="0.0"
     borderopacity="1.0"
     bordercolor="#666666"
     pagecolor="#ffffff"
     id="base"
     inkscape:snap-bbox="false"
     inkscape:object-paths="true"
     inkscape:snap-nodes="true"
     showguides="true"
     inkscape:guide-bbox="true"
     inkscape:snap-object-midpoints="true"
     inkscape:snap-center="true"
     inkscape:snap-global="true"
     inkscape:snap-intersection-paths="true"
     inkscape:snap-smooth-nodes="true"
     inkscape:snap-midpoints="true" />
  <defs
     id="defs4">
    <style
       id="style1156">.cls-1,.cls-2{fill:none;}.cls-2{clip-rule:evenodd;}.cls-3{fill:#fff;}.cls-4{clip-path:url(#clip-path);}.cls-5{fill:#43b02a;}.cls-6{clip-path:url(#clip-path-2);}.cls-7{fill:#3ea426;}.cls-8{clip-path:url(#clip-path-3);}.cls-9{fill:#63ce45;opacity:0.3;}.cls-10{clip-path:url(#clip-path-4);}.cls-11{fill:#4cb832;}.cls-12{clip-path:url(#clip-path-5);}.cls-13{clip-path:url(#clip-path-6);}.cls-14{clip-path:url(#clip-path-7);}.cls-15{clip-path:url(#clip-path-8);}</style>
  </defs>
  <metadata
     id="metadata7">
    <rdf:RDF>
      <cc:Work
         rdf:about="">
        <dc:format>image/svg+xml</dc:format>
        <dc:type
           rdf:resource="http://purl.org/dc/dcmitype/StillImage" />
        <dc:title></dc:title>
      </cc:Work>
    </rdf:RDF>
  </metadata>
  <g
     transform="translate(0,-860.36216)"
     id="layer1"
     inkscape:groupmode="layer"
     inkscape:label="Calque 1">
    <path
       id="rect965"
       style="fill:#97db99;fill-opacity:1;fill-rule:evenodd;stroke:none;stroke-width:0.99347;stroke-opacity:1"
       d="m 31.40539,916.18519 h 129.18922 c 6.31859,0 11.40539,4.43086 11.40539,9.93466 v 96.30755 c 0,5.5038 -5.0868,9.9348 -11.40539,9.9348 H 31.40539 C 25.0868,1032.3622 20,1027.9312 20,1022.4275 v -96.30765 c 0,-5.50379 5.0868,-9.93466 11.40539,-9.93466 z"
       sodipodi:nodetypes="sssssssss" />
    <g
       id="g980"
       transform="matrix(0.30076774,0,0,0.30076774,69.02361,944.25905)"
       fill="#ffffff"
       style="fill-rule:evenodd;stroke:none;stroke-width:0.885334">
      <path
         d="m 119.78671,80.010353 c 11.80588,11.863529 21.45764,31.289407 15.93294,42.829417 C 120.942,153.70447 10.690235,207.82918 1.3231765,198.46447 -8.0427059,189.09741 46.124353,78.804471 76.989059,64.025647 c 11.541176,-5.525882 30.969411,4.130588 42.834121,15.938824 0,0 -0.0118,0.01647 -0.0365,0.04588"
         id="path976"
         style="stroke-width:0.885334" />
      <path
         d="M 136.73529,1.3625882 C 146.68823,4.0543529 156.74,10.914353 157.93177,21.153176 160.11529,39.934353 126.90941,69.541412 119.02706,67.428471 111.14588,65.316706 97.252941,23.492 108.48235,7.8661176 c 5.78824,-8.05176466 18.29177,-9.1858823 28.25765,-6.54 0,0 -0.001,0.011765 -0.005,0.036471 z m 41.46118,65.6176468 0.001,-0.0012 c -1.92,-7.098824 -6.81294,-14.269412 -14.11647,-15.12 -13.39647,-1.557647 -34.51295,22.125882 -33.00706,27.748235 1.50706,5.621177 31.33882,15.529412 42.48353,7.52 5.7447,-4.127059 6.55176,-13.044706 4.6647,-20.152941 z"
         id="path978"
         style="stroke-width:0.885334" />
    </g>
    <path
       id="path1091"
       style="color:#000000;font-style:normal;font-variant:normal;font-weight:normal;font-stretch:normal;font-size:medium;line-height:normal;font-family:sans-serif;font-variant-ligatures:normal;font-variant-position:normal;font-variant-caps:normal;font-variant-numeric:normal;font-variant-alternates:normal;font-variant-east-asian:normal;font-feature-settings:normal;font-variation-settings:normal;text-indent:0;text-align:start;text-decoration:none;text-decoration-line:none;text-decoration-style:solid;text-decoration-color:#000000;letter-spacing:normal;word-spacing:normal;text-transform:none;writing-mode:lr-tb;direction:ltr;text-orientation:mixed;dominant-baseline:auto;baseline-shift:baseline;text-anchor:start;white-space:normal;shape-padding:0;shape-margin:0;inline-size:0;clip-rule:nonzero;display:inline;overflow:visible;visibility:visible;isolation:auto;mix-blend-mode:normal;color-interpolation:sRGB;color-interpolation-filters:linearRGB;solid-color:#000000;solid-opacity:1;vector-effect:none;fill:#97db99;fill-opacity:1;fill-rule:nonzero;stroke:none;stroke-width:15.0002;stroke-linecap:round;stroke-linejoin:round;stroke-miterlimit:4;stroke-dasharray:none;stroke-dashoffset:6;stroke-opacity:1;paint-order:stroke fill markers;color-rendering:auto;image-rendering:auto;shape-rendering:auto;text-rendering:auto;enable-background:accumulate;stop-color:#000000"
       d="m 69.85361,880.36216 c -16.73388,0 -30.44027,13.70639 -30.44027,30.44026 V 1032.3622 H 54.42338 V 910.80242 c 0,-8.67784 6.75238,-15.43023 15.43023,-15.43023 h 52.29278 c 8.67784,0 15.43023,6.75238 15.43023,15.43023 v 121.55978 h 15.01003 V 910.80242 c 0,-16.73387 -13.70639,-30.44026 -30.44026,-30.44026 z" />
    <path
       id="path1281"
       style="color:#000000;font-style:normal;font-variant:normal;font-weight:normal;font-stretch:normal;font-size:medium;line-height:normal;font-family:sans-serif;font-variant-ligatures:normal;font-variant-position:normal;font-variant-caps:normal;font-variant-numeric:normal;font-variant-alternates:normal;font-variant-east-asian:normal;font-feature-settings:normal;font-variation-settings:normal;text-indent:0;text-align:start;text-decoration:none;text-decoration-line:none;text-decoration-style:solid;text-decoration-color:#000000;letter-spacing:normal;word-spacing:normal;text-transform:none;writing-mode:lr-tb;direction:ltr;text-orientation:mixed;dominant-baseline:auto;baseline-shift:baseline;text-anchor:start;white-space:normal;shape-padding:0;shape-margin:0;inline-size:0;clip-rule:nonzero;display:inline;overflow:visible;visibility:visible;isolation:auto;mix-blend-mode:normal;color-interpolation:sRGB;color-interpolation-filters:linearRGB;solid-color:#000000;solid-opacity:1;vector-effect:none;fill:#ffffff;fill-opacity:0.25;fill-rule:nonzero;stroke:none;stroke-width:15.0002;stroke-linecap:round;stroke-linejoin:round;stroke-miterlimit:4;stroke-dasharray:none;stroke-dashoffset:6;stroke-opacity:1;paint-order:stroke fill markers;color-rendering:auto;image-rendering:auto;shape-rendering:auto;text-rendering:auto;enable-background:accumulate;stop-color:#000000"
       d="m 69.85361,880.36216 c -16.73388,0 -30.44027,13.70639 -30.44027,30.44026 V 1032.3622 H 54.42338 V 910.80242 c 0,-8.67784 6.75238,-15.43023 15.43023,-15.43023 h 52.29278 c 8.67784,0 15.43023,6.75238 15.43023,15.43023 v 121.55978 h 15.01003 V 910.80242 c 0,-16.73387 -13.70639,-30.44026 -30.44026,-30.44026 z" />
    <path
       id="rect1096"
       style="fill:#97db99;fill-opacity:1;stroke:none;stroke-width:15;stroke-linecap:round;stroke-linejoin:round;stroke-miterlimit:4;stroke-dasharray:none;stroke-dashoffset:6;stroke-opacity:1;paint-order:stroke fill markers;stop-color:#000000"
       d="m 69.83505,895.37255 52.33398,-3.6e-4 v -15.01003 l -52.33398,3.6e-4 c -0.009,0 0,15.01003 0,15.01003 z"
       sodipodi:nodetypes="ccccc" />
  </g>
  <style
     type="text/css"
     id="style853">
	.st0{fill:#FFFFFF;}
</style>
  <style
     type="text/css"
     id="style853-9">
	.st0{fill:#FFFFFF;}
</style>
  <style
     type="text/css"
     id="style853-3">
	.st0{fill:#FFFFFF;}
</style>
</svg>

<svg xmlns="http://www.w3.org/2000/svg" id="svg2" width="192" height="192" version="1.1"><defs id="defs4"><style id="style1156">.cls-1,.cls-2{fill:none}.cls-2{clip-rule:evenodd}.cls-3{fill:#fff}.cls-4{clip-path:url(#clip-path)}.cls-5{fill:#43b02a}.cls-6{clip-path:url(#clip-path-2)}.cls-7{fill:#3ea426}.cls-8{clip-path:url(#clip-path-3)}.cls-9{fill:#63ce45;opacity:.3}.cls-10{clip-path:url(#clip-path-4)}.cls-11{fill:#4cb832}.cls-12{clip-path:url(#clip-path-5)}.cls-13{clip-path:url(#clip-path-6)}.cls-14{clip-path:url(#clip-path-7)}.cls-15{clip-path:url(#clip-path-8)}.st0{fill:#fff}</style></defs><g id="layer1" transform="translate(0 -860.362)"><path id="rect965" d="M31.405 916.185h129.19c6.318 0 11.405 4.431 11.405 9.935v96.307c0 5.504-5.087 9.935-11.405 9.935H31.405c-6.318 0-11.405-4.43-11.405-9.935V926.12c0-5.504 5.087-9.935 11.405-9.935z" style="fill:#97db99;fill-opacity:1;fill-rule:evenodd;stroke:none;stroke-width:.99347;stroke-opacity:1"/><g id="g980" fill="#fff" style="fill-rule:evenodd;stroke:none;stroke-width:.885334" transform="matrix(.30077 0 0 .30077 69.024 944.26)"><path id="path976" d="M119.787 80.01c11.806 11.864 21.457 31.29 15.933 42.83-14.778 30.864-125.03 84.99-134.397 75.624-9.366-9.367 44.801-119.66 75.666-134.438 11.541-5.526 30.97 4.13 42.834 15.938 0 0-.012.017-.036.046" style="stroke-width:.885334"/><path id="path978" d="M136.735 1.363c9.953 2.691 20.005 9.551 21.197 19.79 2.183 18.781-31.023 48.388-38.905 46.275-7.881-2.111-21.774-43.936-10.545-59.562 5.789-8.052 18.292-9.186 28.258-6.54l-.005.037zm41.461 65.617.001-.001c-1.92-7.099-6.812-14.27-14.116-15.12-13.396-1.558-34.513 22.126-33.007 27.748 1.507 5.621 31.339 15.53 42.483 7.52 5.745-4.127 6.552-13.044 4.665-20.153z" style="stroke-width:.885334"/></g><path id="path1091" d="M69.854 880.362c-16.734 0-30.44 13.707-30.44 30.44v121.56h15.01v-121.56c0-8.677 6.752-15.43 15.43-15.43h52.292c8.678 0 15.43 6.753 15.43 15.43v121.56h15.01v-121.56c0-16.733-13.706-30.44-30.44-30.44z" style="color:#000;font-style:normal;font-variant:normal;font-weight:400;font-stretch:normal;font-size:medium;line-height:normal;font-family:sans-serif;font-variant-ligatures:normal;font-variant-position:normal;font-variant-caps:normal;font-variant-numeric:normal;font-variant-alternates:normal;font-variant-east-asian:normal;font-feature-settings:normal;font-variation-settings:normal;text-indent:0;text-align:start;text-decoration:none;text-decoration-line:none;text-decoration-style:solid;text-decoration-color:#000;letter-spacing:normal;word-spacing:normal;text-transform:none;writing-mode:lr-tb;direction:ltr;text-orientation:mixed;dominant-baseline:auto;baseline-shift:baseline;text-anchor:start;white-space:normal;shape-padding:0;shape-margin:0;inline-size:0;clip-rule:nonzero;display:inline;overflow:visible;visibility:visible;isolation:auto;mix-blend-mode:normal;color-interpolation:sRGB;color-interpolation-filters:linearRGB;solid-color:#000;solid-opacity:1;vector-effect:none;fill:#97db99;fill-opacity:1;fill-rule:nonzero;stroke:none;stroke-width:15.0002;stroke-linecap:round;stroke-linejoin:round;stroke-miterlimit:4;stroke-dasharray:none;stroke-dashoffset:6;stroke-opacity:1;paint-order:stroke fill markers;color-rendering:auto;image-rendering:auto;shape-rendering:auto;text-rendering:auto;enable-background:accumulate;stop-color:#000"/><path id="path1281" d="M69.854 880.362c-16.734 0-30.44 13.707-30.44 30.44v121.56h15.01v-121.56c0-8.677 6.752-15.43 15.43-15.43h52.292c8.678 0 15.43 6.753 15.43 15.43v121.56h15.01v-121.56c0-16.733-13.706-30.44-30.44-30.44z" style="color:#000;font-style:normal;font-variant:normal;font-weight:400;font-stretch:normal;font-size:medium;line-height:normal;font-family:sans-serif;font-variant-ligatures:normal;font-variant-position:normal;font-variant-caps:normal;font-variant-numeric:normal;font-variant-alternates:normal;font-variant-east-asian:normal;font-feature-settings:normal;font-variation-settings:normal;text-indent:0;text-align:start;text-decoration:none;text-decoration-line:none;text-decoration-style:solid;text-decoration-color:#000;letter-spacing:normal;word-spacing:normal;text-transform:none;writing-mode:lr-tb;direction:ltr;text-orientation:mixed;dominant-baseline:auto;baseline-shift:baseline;text-anchor:start;white-space:normal;shape-padding:0;shape-margin:0;inline-size:0;clip-rule:nonzero;display:inline;overflow:visible;visibility:visible;isolation:auto;mix-blend-mode:normal;color-interpolation:sRGB;color-interpolation-filters:linearRGB;solid-color:#000;solid-opacity:1;vector-effect:none;fill:#fff;fill-opacity:.25;fill-rule:nonzero;stroke:none;stroke-width:15.0002;stroke-linecap:round;stroke-linejoin:round;stroke-miterlimit:4;stroke-dasharray:none;stroke-dashoffset:6;stroke-opacity:1;paint-order:stroke fill markers;color-rendering:auto;image-rendering:auto;shape-rendering:auto;text-rendering:auto;enable-background:accumulate;stop-color:#000"/><path id="rect1096" d="M69.835 895.373h52.334v-15.01H69.835c-.009 0 0 15.01 0 15.01z" style="fill:#97db99;fill-opacity:1;stroke:none;stroke-width:15;stroke-linecap:round;stroke-linejoin:round;stroke-miterlimit:4;stroke-dasharray:none;stroke-dashoffset:6;stroke-opacity:1;paint-order:stroke fill markers;stop-color:#000"/></g></svg>
